applications/plugins/org.csstudio.opibuilder.imagelib/SymbolLibrary/SVG/Fluid/Valves/VG 3-Positions 2 way-Valves Plug Construction 2.svg

<?xml version='1.0' encoding='UTF-8'?>
<!DOCTYPE svg PUBLIC "-//W3C//DTD SVG 1.0//EN" "C:\SeeVisioDTD\svg10.dtd">
<!--
/*******************************************************************************
* Copyright (c) 2010-2014 ITER Organization.
* All rights reserved. This program and the accompanying materials
* are made available under the terms of the Eclipse Public License v1.0
* which accompanies this distribution, and is available at
* http://www.eclipse.org/legal/epl-v10.html
******************************************************************************/
-->
<svg xmlns="http://www.w3.org/2000/svg" xmlns:xlink="http://www.w3.org/1999/xlink" width="51pt" height="51pt" viewBox="0 0 51 51" version="1.1">
<g id="surface1">
<path style=" stroke:none;fill-rule:nonzero;fill:rgb(100%,100%,100%);fill-opacity:1;" d="M 1.351562 1.351562 L 1.378906 1.351562 L 1.378906 1.378906 L 1.351562 1.378906 Z M 1.351562 1.351562 "/>
<path style=" stroke:none;fill-rule:nonzero;fill:rgb(100%,100%,100%);fill-opacity:1;" d="M 49.15625 49.15625 L 49.183594 49.15625 L 49.183594 49.183594 L 49.15625 49.183594 Z M 49.15625 49.15625 "/>
<path style="fill-rule:nonzero;fill:rgb(65.098039%,65.098039%,65.098039%);fill-opacity:1;stroke-width:0.72;stroke-linecap:round;stroke-linejoin:round;stroke:rgb(0%,0%,0%);stroke-opacity:1;stroke-miterlimit:3;" d="M 6.3801 21.640592 L 0.000940762 18.451012 L 0.000940762 26.951002 L 6.3801 23.759339 Z M 6.3801 21.640592 " transform="matrix(1.875002,0,0,1.875002,9.322455,-17.294908)"/>
<path style="fill-rule:nonzero;fill:rgb(100%,100%,100%);fill-opacity:1;stroke-width:0.72;stroke-linecap:round;stroke-linejoin:round;stroke:rgb(0%,0%,0%);stroke-opacity:1;stroke-miterlimit:3;" d="M 10.630095 21.640592 L 10.630095 23.759339 L 17.009254 26.951002 L 17.009254 18.451012 Z M 6.3801 26.951002 L 10.630095 26.951002 L 10.630095 18.451012 L 6.3801 18.451012 Z M 6.3801 26.951002 " transform="matrix(1.875002,0,0,1.875002,9.322455,-17.294908)"/>
</g>
</svg>

<?xml version="1.0" encoding="UTF-8" standalone="no"?>
<!-- Created with Inkscape (http://www.inkscape.org/) -->

<!--
/*******************************************************************************
* Copyright (c) 2010-2014 ITER Organization.
* All rights reserved. This program and the accompanying materials
* are made available under the terms of the Eclipse Public License v1.0
* which accompanies this distribution, and is available at
* http://www.eclipse.org/legal/epl-v10.html
******************************************************************************/
-->
<svg
   xmlns:v="http://schemas.microsoft.com/visio/2003/SVGExtensions/"
   xmlns:dc="http://purl.org/dc/elements/1.1/"
   xmlns:cc="http://creativecommons.org/ns#"
   xmlns:rdf="http://www.w3.org/1999/02/22-rdf-syntax-ns#"
   xmlns:svg="http://www.w3.org/2000/svg"
   xmlns="http://www.w3.org/2000/svg"
   version="1.1"
   width="0.374331in"
   height="0.374331in"
   viewBox="0 0 26.9518 26.9518"
   id="svg2"
   xml:space="preserve"
   style="font-size:12px;fill:none;stroke-linecap:square;stroke-miterlimit:3;overflow:visible"><metadata
   id="metadata32"><rdf:RDF><cc:Work
       rdf:about=""><dc:format>image/svg+xml</dc:format><dc:type
         rdf:resource="http://purl.org/dc/dcmitype/StillImage" /><dc:title></dc:title></cc:Work></rdf:RDF></metadata><defs
   id="defs30">
		
		<v:pageProperties
   v:drawingScale="0.0393701"
   v:pageScale="0.0393701"
   v:drawingUnits="24"
   v:shadowOffsetX="8.50394"
   v:shadowOffsetY="-8.50394" />
		
		
	</defs>
	<v:documentProperties
   v:viewMarkup="false"
   v:metric="true"
   v:langID="1036" />
	<style
   type="text/css"
   id="style4" />
	<g
   transform="translate(4.97197,-9.22394)"
   id="shape27-6"><title
   id="title24">FL_EF010105C</title>
			
			<g
   id="g3808"><g
     transform="translate(-4.25197,8.50394)"
     id="group1-1"><title
   id="title11">Feuille.1</title>
			
			<g
   transform="translate(0,-25.4959)"
   id="shape2-2"><title
   id="title14">Feuille.2</title>
				
				<rect
   width="0.0159449"
   height="0.0159449"
   x="0"
   y="26.9359"
   id="rect16"
   style="fill:#ffffff;stroke:none" />
			</g>
			<g
   transform="translate(25.4959,0)"
   id="shape3-4"><title
   id="title19">Feuille.3</title>
				
				<rect
   width="0.0159449"
   height="0.0159449"
   x="0"
   y="26.9359"
   id="rect21"
   style="fill:#ffffff;stroke:none" />
			</g>
		</g><g
     id="g3796"><path
       d="M 6.38,21.64 0,18.45 l 0,8.5 6.38,-3.19 0,-2.12 z"
       id="path3024"
       style="fill:#a6a6a6;stroke:#000000;stroke-width:0.72000003;stroke-linecap:round;stroke-linejoin:round" /><path
       d="m 10.63,21.64 0,2.12 6.38,3.19 0,-8.5 -6.38,3.19 z m -4.25,5.31 4.25,0 0,-8.5 -4.25,0 0,8.5 z"
       id="path26"
       style="fill:#ffffff;fill-opacity:1;stroke:#000000;stroke-width:0.72000003;stroke-linecap:round;stroke-linejoin:round" /></g></g>
		</g>
</svg>
